X:192
T:Fairy Dance
T:Fairy Reel
T:Largo's Fairy Dance
M:4/4
L:1/8
R:reel
C:Niel Gow
K:D
|:f2fd f2fd|f2fd Bcde|f2fd gfed|1 cABc dcde:|2 cABc defg||
|:a2af b2ba|gfge a2ag|f2fd gfed|1 cABc defg:|2 cABc dcde||
